X: 1
T: Ye Banks and Braes (of Bonnie Doon)
C: Tune: Trad Scotland
O: 1788
R: jig
Z: 2006 John Chambers <jc:trillian.mit.edu>
M: 6/8
L: 1/8
K: G
D "A"|\
"G"G2G  "D7"A>GA | "G"B<dB "D7"AGA | "G"B>AG "C"GED | "Am"DEG "D7"A3 |\
"G"G2G  "D7"A>GA | "G"B<dB "D7"AGA | "G"B>AG "C"GED | "D7"DEG "G"G2 :|
|: B "B"|\
"G"d2e dBG | d2e dBG | dBG "Em"dBG | "Am"e>d{c}B "D7"BAA |\
"G"G2G  "D7"A>GA | "G"B<dB "D7"AGA | "G"B>AG "C"GED | "D7"DEG "G"G2 :|
